ufans-frontend-package/public/assets/images/new-settings/add-bank.svg

<?xml version="1.0"?>
<svg xmlns="http://www.w3.org/2000/svg" xmlns:xlink="http://www.w3.org/1999/xlink" xmlns:svgjs="http://svgjs.com/svgjs" version="1.1" width="512" height="512" x="0" y="0" viewBox="0 0 416 416" style="enable-background:new 0 0 512 512" xml:space="preserve" class=""><g><g xmlns="http://www.w3.org/2000/svg"><path d="m241.6 320h-161.6c-44.161-.053-79.947-35.839-80-80v-128c.053-44.161 35.839-79.947 80-80h224c44.161.053 79.947 35.839 80 80v112c0 8.837-7.163 16-16 16s-16-7.163-16-16v-112c0-26.51-21.49-48-48-48h-224c-26.51 0-48 21.49-48 48v128c0 26.51 21.49 48 48 48h161.6c8.837 0 16 7.163 16 16s-7.163 16-16 16z" fill="#6661e7" data-original="#000000" class=""/><path d="m320 384c-53.019 0-96-42.981-96-96s42.981-96 96-96 96 42.981 96 96c-.053 52.997-43.003 95.947-96 96zm0-160c-35.346 0-64 28.654-64 64s28.654 64 64 64 64-28.654 64-64-28.654-64-64-64z" fill="#6661e7" data-original="#000000" class=""/><path d="m192 144h-96c-8.837 0-16-7.163-16-16s7.163-16 16-16h96c8.837 0 16 7.163 16 16s-7.163 16-16 16z" fill="#6661e7" data-original="#000000" class=""/><path d="m160 207.136h-64c-8.837 0-16-7.163-16-16s7.163-16 16-16h64c8.837 0 16 7.163 16 16s-7.163 16-16 16z" fill="#6661e7" data-original="#000000" class=""/><path d="m320 336c-8.837 0-16-7.163-16-16v-64c0-8.837 7.163-16 16-16s16 7.163 16 16v64c0 8.837-7.163 16-16 16z" fill="#6661e7" data-original="#000000" class=""/><path d="m352 304h-64c-8.837 0-16-7.163-16-16s7.163-16 16-16h64c8.837 0 16 7.163 16 16s-7.163 16-16 16z" fill="#6661e7" data-original="#000000" class=""/></g></g></svg>

<svg xmlns="http://www.w3.org/2000/svg" width="416" height="352" viewBox="0 0 416 352">
  <g id="add-bank" transform="translate(0 -32)">
    <g id="Group_1" data-name="Group 1">
      <path id="Path_20" data-name="Path 20" d="M241.6,320H80A80.1,80.1,0,0,1,0,240V112A80.1,80.1,0,0,1,80,32H304a80.1,80.1,0,0,1,80,80V224a16,16,0,0,1-32,0V112a48,48,0,0,0-48-48H80a48,48,0,0,0-48,48V240a48,48,0,0,0,48,48H241.6a16,16,0,1,1,0,32Z" fill="#e44499"/>
      <path id="Path_21" data-name="Path 21" d="M320,384a96,96,0,1,1,96-96A96,96,0,0,1,320,384Zm0-160a64,64,0,1,0,64,64A64,64,0,0,0,320,224Z" fill="#e44499"/>
      <path id="Path_22" data-name="Path 22" d="M192,144H96a16,16,0,0,1,0-32h96a16,16,0,0,1,0,32Z" fill="#e44499"/>
      <path id="Path_23" data-name="Path 23" d="M160,207.136H96a16,16,0,1,1,0-32h64a16,16,0,0,1,0,32Z" fill="#e44499"/>
      <path id="Path_24" data-name="Path 24" d="M320,336a16,16,0,0,1-16-16V256a16,16,0,0,1,32,0v64A16,16,0,0,1,320,336Z" fill="#e44499"/>
      <path id="Path_25" data-name="Path 25" d="M352,304H288a16,16,0,0,1,0-32h64a16,16,0,0,1,0,32Z" fill="#e44499"/>
    </g>
  </g>
</svg>
